!!!COM: Zenaro, Giulio
!!!CDT: <1588-1590
!!!OTL: Sovra un lucido rio
!!!PDT: 1589
!!!PUB-format:
!!!rime: 318
!!!PTL: Il primo libro de madrigali a tre voci
!!!PPP: Venice
!!!PPR: Vincenzi & Amadino
!!!PDT: 1589
!!!AGN: Madrigal
!!!SCT: Trm0318c
!!!SCA: Trm0318c
!!!original-voices: 3
!!!extant-voices: 3
!!!complete: Y
!!!final: G
**kern	**text	**kern	**text	**kern	**text
*part3	*part3	*part2	*part2	*part1	*part1
*staff3	*staff3	*staff2	*staff2	*staff1	*staff1
*Ivox	*	*Ivox	*	*Ivox	*
*I"Basso	*	*I"Tenore	*	*I"Canto	*
*I'B	*	*I'T	*	*I'C	*
*oclefC3	*	*oclefC2	*	*oclefG2	*
*clefGv2	*	*clefG2	*	*clefG2	*
*k[b-]	*	*k[b-]	*	*k[b-]	*
*omet(C)	*	*omet(C)	*	*omet(C)	*
*M4/2	*	*M4/2	*	*M4/2	*
=1	=1	=1	=1	=1	=1
1r	.	1r	.	4gg	So-
.	.	.	.	4gg	-vra un
.	.	.	.	4ff	lu-
.	.	.	.	8ee	-ci-
.	.	.	.	8dd	-do
2r	.	4cc	So-	4ee	ri-
.	.	4b-	-vra un	8ddL	.
.	.	.	.	8ccJ	.
4g	So-	4b-	lu-	2dd	.
4f	-vra un	8a	-ci-	.	.
.	.	8g	-do	.	.
=2	=2	=2	=2	=2	=2
4f	lu-	4a	ri-	4cc	-o,
8e	-ci-	8gL	.	2gg	<So-
8d	-do	8fJ	.	.	.
4e	ri-	8gL	.	.	.
.	.	8aJ	.	.	.
8dL	.	4b-	.	4ff	-vra un
8cJ	.	.	.	.	.
2d	.	4.a	-o	4ff	lu-
.	.	.	.	8ee	-ci-
.	.	8b-	.	8dd	-do
2c	-o	4cc	.	2ee	ri-
.	.	[4g	Si	.	.
=3	=3	=3	=3	=3	=3
4G	Si	4g]	.	2dd	-o>
4B-	do-	4f	do-	.	.
4c	-lea	4e-	-lea	4r	.
2B-	per	8dL	per	2dd	Si
.	.	8eniJ	.	.	.
.	.	8fL	.	.	.
.	.	8gJ	.	.	.
4F	A-	4a	.	4cc	do-
8GL	-mo-	4.d	A-	2b-	-lea
8A	.	.	.	.	.
8B-	.	.	.	.	.
8cJ	.	8eni	.	.	.
=4	=4	=4	=4	=4	=4
1d	.	4f#X	.	4a	per
.	.	2g	.	4b-	A-
.	.	.	.	2a	-mo-
.	.	4f#X	-mo-	.	.
1G	-re	2g	-re	4b-	-re
.	.	.	.	4dd	Un
.	.	4r	.	4.b-	pa-
.	.	4d	Un	.	.
.	.	.	.	8cc	-sto-
=5	=5	=5	=5	=5	=5
4r	.	4.f	pa-	2dd	-rel,
4d	Un	.	.	.	.
.	.	8e	-sto-	.	.
4.B-	pa-	4d	-rel,	4r	.
.	.	4b-	<Un	4dd	<Un
8c	-sto-	.	.	.	.
2.d	-rel	4.a	pa-	4.ff	pa-
.	.	8g	-sto-	8ee	-sto-
.	.	4f	-rel>	4.dd	-rel>
4B-	mi-	4d	mi-	.	.
.	.	.	.	8cc	mi-
=6	=6	=6	=6	=6	=6
4.e-	-ran-	4.g	-ran-	4.b-	-ran-
8e-i	-d'il	8g	-d'il	8cc	-d'il
8d	suo	8f	suo	8dd	suo
8c	bel	8g	bel	8ee-	bel
4f	vi-	4a	vi-	4cc	vi-
4B-	-so:	2b-	-so:	2dd	-so:
4G	"Per-	.	.	.	.
[2d	-ch&eacute;,"	4r	.	2ff	"Per-
.	.	4f	<Per-	.	.
=7	=7	=7	=7	=7	=7
4d]	.	2.a	-ch&eacute;,>	2ff	-ch&eacute;,"
8cL	.	.	.	.	.
8B-J	.	.	.	.	.
4c	.	.	.	4ee	di-
4d	di-	4f	di-	2dd	-ce-
4B-	-ce-	4d	-ce-	.	.
4G	-va,	4g	-va,	4b-	-va,
2d	"an-	2f#X	"an-	2a	"an-
=8	=8	=8	=8	=8	=8
*col	*	*col	*	*col	*
3%2GV	-ch'io	3%2gV	-ch'io	3%2bnV	-ch'io
3B-Z	Non	3dZ	Non	3ddZ	Non
3.cV	mi	3.eV	mi	3.ccV	mi
6c	con-	6e	con-	6cc	con-
3AZ	-ver-	3f#XZ	-ver-	3ccZ	-ver-
=9	=9	=9	=9	=9	=9
3GV	-t'in	3gV	-t'in	3b-iV	-t'in
3%2dZ	fio-	3%2f#XZ	fio-	3%2aZ	fio-
3%2GV	-re,	3%2gV	-re,	3%2bnV	-re,
3gZ	<Non	3b-Z	<Non	3ddZ	<Non
=10	=10	=10	=10	=10	=10
3.fV	mi	3.aV	mi	3.ffV	mi
6f	con-	6a	con-	6ff	con-
3dZ	-ver-	3bnZ	-ver-	3ffZ	-ver-
3cV	-t'in	3ccV	-t'in	3ee-V	-t'in
3%2gZ	fio-	3%2b-iZ	fio-	3%2ddZ	fio-
*Xcol	*	*Xcol	*	*Xcol	*
=11	=11	=11	=11	=11	=11
4f#X	-re,>	4a	-re,>	2dd	-re,>
4g	Ben-	4.b-	Ben-	.	.
4d	-ch&eacute;	.	.	4r	.
.	.	8a	-ch&eacute;	.	.
4e-	non	4g	non	4.gg	Ben-
2d	a-	2a	a-	.	.
.	.	.	.	8gg	-ch&eacute;
.	.	.	.	4ff#X	non
2g	-mi,	2b-	-mi,	2gg	a-
=12	=12	=12	=12	=12	=12
4r	.	4r	.	2dd	-mi
4.g	<Ben-	4.b-	<Ben-	.	.
.	.	.	.	4dd	co-
8g	-ch&eacute;	8b-	-ch&eacute;	.	.
4f#X	non	4a	non	4dd	-me
2g	a-	8gL	a-	8b-L	fe'
.	.	8aJ	.	8cc	.
.	.	2b-	.	8dd	.
.	.	.	.	8eeJ	.
4d	-mi>	.	.	4.ff	.
[4d	co-	4a	-mi>	.	.
.	.	.	.	8ee	.
=13	=13	=13	=13	=13	=13
4d]	.	2f	co-	4dd	.
4d	-me	.	.	4a	Nar-
2B-	fe'	4d	-me	4.b-	-ci-
.	.	2g	fe'	.	.
.	.	.	.	16aL	.
.	.	.	.	16gJ	.
2c	Nar-	.	.	1a	.
.	.	4g	Nar-	.	.
2d	-ci-	2f#X	-ci-	.	.
=14	=14	=14	=14	=14	=14
4G	-so,	2g	-so,	2b-	-so,
4g	Ch'in	.	.	.	.
4.f	quel-	4r	.	2r	.
.	.	4cc	Ch'in	.	.
8e	-la	.	.	.	.
4d	for-	4.b-	quel-	4r	.
4e-	-m'al-	.	.	4gg	Ch'in
.	.	8g	-la	.	.
2d	-me-	4a	for-	4.ff	quel-
.	.	4f	-m'al-	.	.
.	.	.	.	8ee	-la
=15	=15	=15	=15	=15	=15
2G	-no,	1b-	-me-	4dd	for-
.	.	.	.	4ee-	-m'al-
4r	.	.	.	2dd	-me-
4g	<Ch'in	.	.	.	.
4.f	quel-	4a	-no,	2ff	-no,
.	.	4cc	<Ch'in	.	.
8e	-la	.	.	.	.
4d	for-	4.b-	quel-	4r	.
4e-	-m'al-	.	.	4gg	<Ch'in
.	.	8g	-la	.	.
=16	=16	=16	=16	=16	=16
2d	-me-	4a	for-	4.ff	quel-
.	.	4f	-m'al-	.	.
.	.	.	.	8ee	-la
4G	-no,>	8b-L	-me-	4dd	for-
.	.	8aJ	.	.	.
4c	<Ch'in	2g	.	2ee-	-m'al-
4.B-	quel-	.	.	.	.
.	.	4f	-no,>	2dd	-me-
8c	-la	.	.	.	.
4d	for-	4r	.	.	.
4e-	-m'al-	4g	Ch'in	4cc	.
=17	=17	=17	=17	=17	=17
1d	-me-	4.a	quel-	4dd	-no,>
.	.	.	.	4ff	<Ch'in
.	.	8g	-la	.	.
.	.	8f	for-	4.dd	quel-
.	.	8g	-m'al-	.	.
.	.	2a	-me-	.	.
.	.	.	.	8ee	-la
1d	-no>	.	.	4ff	for-
.	.	4b-	.	4gg	-m'al-
.	.	2a	.	2ff#X	-me-
=18	=18	=18	=18	=18	=18
2r	.	1g	-no	2gg	-no>
4G	Mi	.	.	4dd	Mi
8B-	rac-	.	.	8dd	rac-
8c	-cor-	.	.	8ee	-cor-
4d	-reb-	4f	Mi	4ffni	-reb-
4B-	-be,	8f	rac-	4dd	-be,
.	.	8g	-cor-	.	.
4f	Mi	4a	-reb-	2r	.
8d	rac-	4f	-be,	.	.
8e	-cor-	.	.	.	.
=19	=19	=19	=19	=19	=19
8fL	-reb-	4d	Mi	4dd	Mi
8eJ	.	.	.	.	.
2d	.	8f	rac-	8dd	rac-
.	.	8g	-cor-	8ee	-cor-
.	.	4a	-reb-	4ff	-reb-
4d	-be	4f	-be	4dd	-be
8G	la	4r	.	8b-	la
8A	mia	.	.	8cc	mia
2B-	don-	8f	la	2dd	don-
.	.	8e	mia	.	.
.	.	4d	don-	.	.
4G	-na in	4g	-na in	4b-	-na in
=20	=20	=20	=20	=20	=20
2d	se-	2f#X	se-	2a	se-
2G	-no,	2g	-no,	2bn	-no,
4r	.	4r	.	4r	.
4g	Ch'in	4b-	Ch'in	4dd	Ch'in
4.f#X	quel-	4.a	quel-	4.dd	quel-
8g	-la	8b-	-la	8dd	-la
=21	=21	=21	=21	=21	=21
4d	for-	4f	for-	4dd	for-
4e-	-m'al-	4g	-m'al-	4gg	-m'al-
2d	-me-	2a	-me-	2ff#X	-me-
1g	-no	1b-	-no	2gg	-no
.	.	.	.	4dd	Mi
.	.	.	.	8dd	rac-
.	.	.	.	8dd	-cor-
=22	=22	=22	=22	=22	=22
2r	.	4a	Mi	4ff	-reb-
.	.	8b-	rac-	4dd	-be,
.	.	8a	-cor-	.	.
4G	Mi	4.g	-reb-	4b-	<Mi
8G	rac-	.	.	8b-	rac-
8A	-cor-	16fL	.	8cc	-cor-
.	.	16eJ	.	.	.
4B-	-reb-	8dL	.	4dd	-reb-
.	.	8c	.	.	.
4G	-be,	8d	.	4b-	-be>
.	.	8eJ	.	.	.
4d	<Mi	4f	.	2r	.
8d	rac-	4b-	-be,	.	.
8e	-cor-	.	.	.	.
=23	=23	=23	=23	=23	=23
4f	-reb-	4a	Mi	2r	.
4d	-be,>	8b-	rac-	.	.
.	.	8a	-cor-	.	.
4G	Mi	4.g	-reb-	4dd	Mi
8B-	rac-	.	.	8dd	rac-
8c	-cor-	16fL	.	8ee	-cor-
.	.	16eJ	.	.	.
4d	-reb-	4.d	.	4ff	-reb-
4B-	-be	.	.	4dd	-be
.	.	8e	.	.	.
4r	.	4f	.	4r	.
8G	la	4g	-be	8b-	la
8A	mia	.	.	8cc	mia
=24	=24	=24	=24	=24	=24
2.B-	don-	4r	.	2.dd	don-
.	.	8d	la	.	.
.	.	8e	mia	.	.
.	.	4f	don-	.	.
4c	-na in	4e	-na in	8cc	-na in
.	.	.	.	8b-	se-
1d	se-	4f#X	se-	4a	.
.	.	2g	.	4b-	.
.	.	.	.	2a	.
.	.	4f#X	.	.	.
=25	=25	=25	=25	=25	=25
0Gl	-no?"	0gl	-no?"	0bnl	-no?"
==	==	==	==	==	==
*-	*-	*-	*-	*-	*-
!!!system-decoration: [*]
!!!RDF**kern: i = editorial accidental
!!!RDF**kern: l = terminal long
!!!ENC: Emiliano Ricciardi
!!!END: 2013
!!!EED: Ricciardi, Emiliano
!!!EEV: 2017/02/08
!!!YEC: Copyright 2016 Emiliano Ricciardi, All Rights Reserved
!!!ONB: Translated from MusicXML on 2015/12/28 and edited by Craig Stuart Sapp
!!@@BEGIN:	VERSEDATA
!!@SOLERTI:	318
!!@CATALOGNUM:	Trm0318
!!@LAST_MODIFIED: 2020/07/12
!!@TITLE:		Sovra un lucido rio
!!@GENRE:		madrigale
!!@MANUSRC:	M<sub>7</sub>, S
!!@PRINTSRC:	28, 141, 166, 169
!!@@BEGIN:	VERSES
!!@ABOUTIT:
!!@ABOUTEN:
!!@EDITOR:	Solerti, Angelo
!!@EDITION_TITLE: Le Rime di Torquato Tasso
!!@EDITION_LOC:	Bologna
!!@EDITION_PUB:	Romagnoli-Dall’Acqua
!!@EDITION_DATE:  1898-1902
!!@EDITION_VOL:	2
!!@EDITION_PAGE:  373
!!@TRANSLATOR:	Emiliano Ricciardi and Amyrose McCue Gill
!!@VERSE:
!!	Sovra un lucido rio
!!	Si dolea per amore
!!	Un pastorel mirando il suo bel viso: &mdash;
!!	Perché, diceva, anch'io
!!	Non mi converto in fiore,
!!	Benché non ami come fe' Narciso,
!!	Ch'in quella forma almeno
!!	Mi raccorrebbe la mia donna in seno? &mdash;
!!@TVERSE:
!!	Upon a clear river
!!	Lamented, for love,
!!	A young shepherd, gazing at his beautiful face: &mdash;
!!	Why, he was saying, don’t I, too,
!!	Transform myself into a flower,
!!	Even if I don’t love as did Narcissus,
!!	For in that shape at least
!!	My lady would draw me to her breast? &mdash;
!!@@END:		VERSES
!!@OTHER_CRIT_ED:   None
!!@ATTRIBUTION_ABOUT:	Secure
!!		<br>
!!		This poems is attributed to Tasso in independent sources, both manuscript and printed (see Literary Sources).
!!@DATING:	In or before 1585
!!		<br>
!!		The earlies datable appearance of this poem in a setting by Marenzio published in 1585 (see Musical Settings).
!!@DEDICATEE:
!!@COMMENTARY:
!!@@END:		VERSEDATA
!!@@BEGIN:	SETTING
!!@CATALOGNUM:	Trm0318c
!!@RIMETITLE:	Sovra un lucido rio
!!@SOLERTI:	318
!!@COMPOSER:	Zenaro, Giulio
!!@PRINCEPSTITLE:	Il primo libro de madrigali a tre voci
!!@PRINCEPSLOC:	Venetia
!!@NORMLOC:	Venice
!!@NORMPUB:	Vincenzi & Amadino
!!@NORMPUBSHORT:	Vincenzi & Amadino
!!@PRINCEPSPUB:	Vincenzi
!!@PRINCEPSYEAR:	1589
!!@PRINCEPSRISM:	Z 160
!!@REPRINTS:	
!!@OVOICES:	3
!!@EXTANTVOICES:	3
!!@PARTBOOKS:	
!!@EXTPARTBOOKS:	
!!@OCLEFS:	G2,C2,C3
!!@OMENSURATION:	C
!!@OKEYSIG:	b-
!!@FINAL:	G
!!@TIMPEDITOR:	Ricciardi, Emiliano
!!@NOTE:		
!!@@END:		SETTING
